X:1357
T:Bell Table
M:3/4
L:1/8
K:D Major
Bc|d3 e d2|d2 c2 B2|A3 B A2|A2 G2 F2|!
G2 GA BG|A2 AB cA|G2 GA BG|A3-ABc|!
d3 e d2|d2 c2 B2|A3 B A2|A2 G2 F2|!
G2 GA BG|A2 AB cA|G2 F2 E2|D3-D:|!
fg|a3 b a2|a4 g2|f3 g f2|f2 e2 f2|!
g3 a g2|g2 f2 g2|a3 b a2|a3-afg|!
a3 b a2|a4 g2|f3 g f2|f2 e2 d2|!
B3 d g2|f a3 c2|e d3 c2|d3-d:|!


